X: 175
T: Seni  [C]
O: Finland
M: 2/4
L: 1/8
K: C
|: "F"ff ff | "C"ec cc |  "F"ff ff | "C"e2 gg |\
  "G7"dg gg | "C"eg gg | "G7"gf ed | "C"c2 c2 :|

%%sep 1 1 500
%%sep 1 1 500

